icon-themes/breeze_svg/cmd/sc_symbolshapes.right-brace.svg

<svg viewBox="0 0 16 16" xmlns="http://www.w3.org/2000/svg">/&gt;<path d="m6 2v1h1c.5522237 0 1 .4477014 1 1v1.71875.28125 1c0 .382499.1392847.7350257.375 1-.2357153.2649743-.375.617501-.375 1v1 1 1c0 .552299-.4477156 1-1 1h-1v1h1c1.1045694 0 2-.895403 2-2v-1-1-1c0-.2761493.2238583-.5.5-.5h.5v-1h-.5c-.2761417 0-.5-.2238507-.5-.5v-1-2c0-1.1045222-.8954778-2-2-2z" fill="#4d4d4d"/></svg>

<svg xmlns="http://www.w3.org/2000/svg" viewBox="0 0 16 16">
     />
 <path 
     style="fill:#4d4d4d" 
     d="M 6 2 L 6 3 L 7 3 C 7.5522237 3 8 3.4477014 8 4 L 8 5.71875 L 8 6 L 8 7 C 8 7.382499 8.1392847 7.7350257 8.375 8 C 8.1392847 8.2649743 8 8.617501 8 9 L 8 10 L 8 11 L 8 12 C 8 12.552299 7.5522844 13 7 13 L 6 13 L 6 14 L 7 14 C 8.1045694 14 9 13.104597 9 12 L 9 11 L 9 10 L 9 9 C 9 8.7238507 9.2238583 8.5 9.5 8.5 L 10 8.5 L 10 7.5 L 9.5 7.5 C 9.2238583 7.5 9 7.2761493 9 7 L 9 6 L 9 4 C 9 2.8954778 8.1045222 2 7 2 L 6 2 z "
     />
 </svg>
